X:1522
T:Black Os - bourree
C:Patrick Bouffard
N:abc transcription Simon Wascher
N:if you find an error in this transcription please inform simon.wascher@chello.at
M:3/8
L:1/16
K:Gm
d3cA2|B2A2G2|F3GA2|B2ABAF|
d3cA2|B2A2G2|^F2B2A2|G6:|
|:B2ABAG|F4G2|A3GAB|c2BcBA|
B2ABAG|^F4G2|AGABcd|A4GA:|


